X:35
T: Maggy Lauder 
N: HA035
O: Europa, Mitteleuropa, Deutschland
N: Vorschläge
M: 2/2
L: 1/16
K: Bb
b3cb2c2b3cb2
d2 | c3dedcba4c3
e | d2b2b2f2b3cb2
d2 | f3gf2e2d4f3
f | e3fe2g2d3ed2
f2 | c3dedcba4c2
c2 | bagfgfededcBc3
e | def2c3db4B4
def2b2e2defdb2
d2 | c3dedcba4c3
c | def2b2e2def2b3
d | f3gfgfed4f3
f | e3fe2g2d3ed2
f2 | c3dedcba4c3
c | bagfgfededcBc3
e | def2c3db4B4

